packages/core/src/svgs/dvf.svg

<svg width="24" height="24" viewBox="0 0 24 24" fill="none" xmlns="http://www.w3.org/2000/svg">
<g clip-path="url(#clip0_31_9616)">
<path d="M0 0H24V24H0V0Z" fill="url(#paint0_linear_31_9616)"/>
<path d="M7.32878 12.1501C6.71164 12.073 6.47592 11.9016 6.43735 11.8287C6.38164 12.5101 6.62592 13.8687 8.03592 13.8687C9.44164 13.8687 9.8445 12.7287 9.87021 12.1544H9.96021C10.0888 12.3773 10.0759 12.6644 10.0502 12.7759C10.4409 12.8902 10.7851 13.1258 11.0332 13.4486C11.2812 13.7714 11.4203 14.1646 11.4302 14.5716H12.0731C12.0731 13.4144 11.6445 12.7501 11.4302 12.5744L11.4945 12.4544C11.8373 12.6376 12.1089 12.9303 12.2659 13.2859L12.3816 13.3287C13.2731 13.7273 13.9416 13.4444 14.1688 13.2516C14.0373 13.0338 13.9567 12.7891 13.9331 12.5359H14.1088C14.1174 12.5873 14.1945 12.793 14.4431 13.2216C14.6616 13.603 15.0645 13.6801 15.4588 13.7573C15.6174 13.7873 15.7759 13.8173 15.9174 13.8644C16.3116 14.0059 16.3288 14.3959 16.2902 14.5716H16.7145V14.2287C16.7145 13.843 16.4916 13.513 16.2859 13.213C16.1102 12.9559 15.9431 12.7201 15.9431 12.4844C15.9431 12.0687 16.1745 11.7601 16.2859 11.6573C16.1874 11.6273 16.1059 11.5116 16.0074 11.3701C15.8616 11.1601 15.6774 10.8901 15.3088 10.7701C15.1298 10.709 14.9401 10.6856 14.7516 10.7016C14.5631 10.7059 14.2974 10.7144 13.7788 10.6587C13.2988 10.603 13.0074 10.3587 12.6945 10.1016C12.3088 9.77157 11.8931 9.42871 11.0659 9.42871C9.87878 9.42871 9.48021 10.4273 9.4245 10.9287C9.29976 10.7284 9.10864 10.5782 8.8845 10.5044C8.88878 11.0359 8.7645 11.6873 8.24164 11.9059C7.81307 12.0859 7.45735 11.7859 7.32878 11.6144C7.16164 11.7944 7.26021 12.043 7.32878 12.1501ZM10.5431 14.5716C10.6296 14.1779 10.6028 13.7678 10.4659 13.3887L10.5474 13.3459C11.0102 13.6973 11.0788 14.323 11.0531 14.5716H10.5474H10.5431ZM14.2931 13.4444C14.3745 13.5559 14.6359 13.8044 15.0216 13.9073C14.9667 14.1546 14.8486 14.3835 14.6788 14.5716H14.0745C14.2288 14.4001 14.4645 13.9201 14.1945 13.5473L14.2931 13.4444Z" fill="url(#paint1_linear_31_9616)"/>
<path fill-rule="evenodd" clip-rule="evenodd" d="M12.0001 19.2858C13.9324 19.2858 15.7855 18.5182 17.1518 17.1518C18.5182 15.7855 19.2858 13.9324 19.2858 12.0001C19.2858 10.0678 18.5182 8.21463 17.1518 6.84829C15.7855 5.48196 13.9324 4.71436 12.0001 4.71436C10.0678 4.71436 8.21463 5.48196 6.84829 6.84829C5.48196 8.21463 4.71436 10.0678 4.71436 12.0001C4.71436 13.9324 5.48196 15.7855 6.84829 17.1518C8.21463 18.5182 10.0678 19.2858 12.0001 19.2858ZM12.0001 18.8572C13.8187 18.8572 15.5628 18.1348 16.8488 16.8488C18.1348 15.5628 18.8572 13.8187 18.8572 12.0001C18.8572 10.1814 18.1348 8.4373 16.8488 7.15134C15.5628 5.86537 13.8187 5.14293 12.0001 5.14293C10.1814 5.14293 8.4373 5.86537 7.15134 7.15134C5.86537 8.4373 5.14293 10.1814 5.14293 12.0001C5.14293 13.8187 5.86537 15.5628 7.15134 16.8488C8.4373 18.1348 10.1814 18.8572 12.0001 18.8572Z" fill="url(#paint2_linear_31_9616)"/>
</g>
<defs>
<linearGradient id="paint0_linear_31_9616" x1="12" y1="0" x2="12" y2="24" gradientUnits="userSpaceOnUse">
<stop stop-color="#F0F3FA"/>
<stop offset="0.74" stop-color="#FEC9C3"/>
<stop offset="1" stop-color="#FDD6AF"/>
</linearGradient>
<linearGradient id="paint1_linear_31_9616" x1="6.92592" y1="14.143" x2="16.0545" y2="10.2344" gradientUnits="userSpaceOnUse">
<stop stop-color="#FCDEA0"/>
<stop offset="0.5" stop-color="#ED5F5E"/>
<stop offset="0.88" stop-color="#67C9CB"/>
</linearGradient>
<linearGradient id="paint2_linear_31_9616" x1="16.8301" y1="7.42721" x2="6.1715" y2="15.8915" gradientUnits="userSpaceOnUse">
<stop stop-color="#6FC3CE"/>
<stop offset="1" stop-color="#F96962"/>
</linearGradient>
<clipPath id="clip0_31_9616">
<rect width="24" height="24" fill="white"/>
</clipPath>
</defs>
</svg>

<svg xmlns="http://www.w3.org/2000/svg" width="24" height="24" fill="none" viewBox="0 0 24 24"><g clip-path="url(#a)"><path fill="url(#b)" d="M0 0h24v24H0z"/><path fill="url(#c)" d="M7.329 12.15c-.617-.077-.853-.248-.892-.321-.055.681.189 2.04 1.599 2.04 1.406 0 1.809-1.14 1.834-1.715h.09c.129.223.116.51.09.622a1.92 1.92 0 0 1 1.38 1.796h.643c0-1.158-.428-1.822-.643-1.998l.065-.12c.342.184.614.476.77.832l.117.043c.891.398 1.56.115 1.787-.077a1.7 1.7 0 0 1-.236-.716h.176c.008.051.085.257.334.686.219.381.622.458 1.016.535.158.03.317.06.458.107.395.142.412.532.373.708h.425v-.343c0-.386-.223-.716-.43-1.016-.175-.257-.342-.493-.342-.729 0-.415.231-.724.343-.827-.099-.03-.18-.145-.279-.287-.145-.21-.33-.48-.698-.6a1.4 1.4 0 0 0-.557-.068c-.189.004-.455.012-.973-.043-.48-.056-.772-.3-1.085-.557-.385-.33-.8-.673-1.628-.673-1.187 0-1.586.998-1.642 1.5-.124-.2-.315-.35-.54-.425.005.532-.12 1.183-.642 1.402-.429.18-.785-.12-.913-.292-.167.18-.069.429 0 .536m3.214 2.422c.087-.394.06-.804-.077-1.183l.081-.043c.463.351.532.977.506 1.226h-.51m3.75-1.128c.082.112.343.36.729.463a1.47 1.47 0 0 1-.343.665h-.604c.154-.172.39-.652.12-1.025z"/><path fill="url(#d)" fill-rule="evenodd" d="M12 19.286a7.285 7.285 0 1 0 0-14.57 7.285 7.285 0 0 0 0 14.57m0-.429a6.857 6.857 0 1 0 0-13.714 6.857 6.857 0 0 0 0 13.714" clip-rule="evenodd"/></g><defs><linearGradient id="b" x1="12" x2="12" y1="0" y2="24" gradientUnits="userSpaceOnUse"><stop stop-color="#F0F3FA"/><stop offset=".74" stop-color="#FEC9C3"/><stop offset="1" stop-color="#FDD6AF"/></linearGradient><linearGradient id="c" x1="6.926" x2="16.055" y1="14.143" y2="10.234" gradientUnits="userSpaceOnUse"><stop stop-color="#FCDEA0"/><stop offset=".5" stop-color="#ED5F5E"/><stop offset=".88" stop-color="#67C9CB"/></linearGradient><linearGradient id="d" x1="16.83" x2="6.171" y1="7.427" y2="15.892" gradientUnits="userSpaceOnUse"><stop stop-color="#6FC3CE"/><stop offset="1" stop-color="#F96962"/></linearGradient><clipPath id="a"><path fill="#fff" d="M0 0h24v24H0z"/></clipPath></defs></svg>
